src/assets/images/expertise/ts.svg

<?xml version="1.0" encoding="utf-8"?>
<svg width="93" height="93" viewBox="0 0 93 93" fill="none" xmlns="http://www.w3.org/2000/svg">
<path opacity="0.6" d="M0.561279 46.2128V91.1883C0.561279 91.7406 1.00899 92.1883 1.56128 92.1883H91.5152C92.0675 92.1883 92.5152 91.7406 92.5152 91.1883V1.23438C92.5152 0.682093 92.0675 0.234375 91.5152 0.234375H1.56128C1.009 0.234375 0.561279 0.68209 0.561279 1.23437V46.2128ZM74.6638 42.5491C76.9985 43.1324 78.78 44.1697 80.415 45.8622C81.2627 46.7674 82.517 48.4167 82.619 48.8104C82.6477 48.9253 78.6493 51.612 76.2255 53.1163C76.1393 53.1738 75.7873 52.7959 75.3922 52.2111C74.2098 50.4871 72.9699 49.7443 71.0719 49.6135C68.2847 49.4239 66.4744 50.8836 66.5031 53.3203C66.5031 54.0358 66.6037 54.4582 66.8968 55.0444C67.5103 56.3145 68.6496 57.0731 72.2242 58.6219C78.8073 61.4522 81.6233 63.32 83.3733 65.9779C85.3272 68.9405 85.7669 73.6702 84.4393 77.1873C82.9796 81.0119 79.3605 83.6096 74.2672 84.4716C72.6911 84.7489 68.9542 84.7058 67.2617 84.3998C63.5693 83.7432 60.0665 81.9185 57.9057 79.5249C57.058 78.591 55.4101 76.1529 55.5121 75.9762C55.5552 75.9187 55.9359 75.6845 56.3598 75.436L59.7749 73.4676L62.4185 71.9346L62.9731 72.7536C63.746 73.936 65.4399 75.5552 66.4614 76.0954C69.3953 77.6428 73.4239 77.423 75.408 75.6429C76.2557 74.8699 76.6048 74.0668 76.6048 72.8843C76.6048 71.8183 76.4755 71.3513 75.9195 70.5496C75.204 69.5295 73.7443 68.6675 69.5978 66.8716C64.8537 64.8286 62.8107 63.5585 60.943 61.5442C59.8625 60.3761 58.841 58.5084 58.4172 56.9466C58.0666 55.6478 57.979 52.3922 58.2563 51.079C59.2332 46.4814 62.6929 43.2991 67.6855 42.3508C69.3062 42.0448 73.0733 42.1612 74.6623 42.5548L74.6638 42.5491ZM53.0768 46.3852L53.1056 50.1494H41.1376V84.157H32.6723V50.1494H20.7043V46.457L20.8049 42.664C20.848 42.6066 28.1322 42.5778 36.9624 42.5922L53.0323 42.6353L53.0768 46.3852Z" fill="#1F3D56"/>
</svg>

<svg width="93" height="93" fill="none" xmlns="http://www.w3.org/2000/svg"><path opacity=".6" d="M.561 46.213v44.975a1 1 0 001 1h89.954a1 1 0 001-1V1.234a1 1 0 00-1-1H1.561a1 1 0 00-1 1v44.979zm74.103-3.664c2.335.583 4.116 1.62 5.751 3.313.848.905 2.102 2.555 2.204 2.948.029.115-3.97 2.802-6.394 4.306-.086.058-.438-.32-.833-.905-1.182-1.724-2.422-2.467-4.32-2.597-2.787-.19-4.598 1.27-4.569 3.706 0 .716.1 1.138.394 1.724.613 1.27 1.753 2.03 5.327 3.578 6.583 2.83 9.4 4.698 11.15 7.356 1.953 2.963 2.393 7.692 1.065 11.21-1.46 3.824-5.078 6.422-10.172 7.284-1.576.277-5.313.234-7.005-.072-3.693-.657-7.196-2.482-9.356-4.875-.848-.934-2.496-3.372-2.394-3.549.043-.057.424-.291.848-.54l3.415-1.968 2.644-1.533.554.819c.773 1.182 2.467 2.801 3.488 3.341 2.934 1.548 6.963 1.328 8.947-.452.848-.773 1.197-1.576 1.197-2.759 0-1.066-.13-1.533-.686-2.334-.715-1.02-2.175-1.882-6.321-3.678-4.744-2.043-6.787-3.313-8.655-5.328-1.08-1.168-2.102-3.036-2.526-4.597-.35-1.3-.438-4.555-.16-5.868.976-4.598 4.436-7.78 9.429-8.728 1.62-.306 5.387-.19 6.976.204l.002-.006zm-21.587 3.836l.029 3.764H41.138v34.008h-8.466V50.149H20.704v-3.692l.1-3.793c.044-.057 7.328-.086 16.158-.072l16.07.043.045 3.75z" fill="#1F3D56"/></svg>
